latex_in_markdown/.watch-latex-md-images/7da59ed0c2f06bf5f9c544c81ffa009d.svg

<ns0:svg xmlns:ns0="http://www.w3.org/2000/svg" xmlns:ns1="http://www.w3.org/1999/xlink" height="17.1855pt" version="1.1" viewBox="23.686 61.8237 39.833 17.1855" width="39.833pt" watch_lated_md:baseline="4.289399999999997" xmlns:watch_lated_md="https://github.com/Quansight/pearu-sandbox/latex_in_markdown/">
<ns0:defs>
<ns0:path d="m3.35701 0.0688618c0 -0.998496 -0.327093 -1.73876 -1.03293 -1.73876c-0.550894 0 -0.826341 0.447601 -0.826341 0.826341s0.258232 0.843557 0.843557 0.843557c0.223801 0 0.413171 -0.0688618 0.56811 -0.223801c0.0344309 -0.0344309 0.0516463 -0.0344309 0.0688618 -0.0344309c0.0344309 0 0.0344309 0.241016 0.0344309 0.327093c0 0.56811 -0.103293 1.68711 -1.10179 2.80612c-0.18937 0.206585 -0.18937 0.241016 -0.18937 0.275447c0 0.0860772 0.0860772 0.172154 0.172154 0.172154c0.137724 0 1.46331 -1.27394 1.46331 -3.25372z" id="g0-59" />
<ns0:path d="m5.26792 4.20057c0 -0.0172154 0 -0.0516463 -0.0516463 -0.103293c-0.79191 -0.809126 -2.90941 -3.0127 -2.90941 -8.38392s2.08307 -7.55758 2.92662 -8.41835c0 -0.0172154 0.0344309 -0.0516463 0.0344309 -0.103293s-0.0516463 -0.0860772 -0.120508 -0.0860772c-0.18937 0 -1.65268 1.27394 -2.49624 3.16764c-0.860772 1.91091 -1.10179 3.77018 -1.10179 5.42286c0 1.23951 0.120508 3.3398 1.15343 5.56059c0.826341 1.79041 2.23801 3.04713 2.44459 3.04713c0.0860772 0 0.120508 -0.0344309 0.120508 -0.103293z" id="g1-40" />
<ns0:path d="m4.52766 -4.28664c0 -1.23951 -0.120508 -3.3398 -1.15343 -5.56059c-0.826341 -1.79041 -2.23801 -3.04713 -2.44459 -3.04713c-0.0516463 0 -0.120508 0.0172154 -0.120508 0.103293c0 0.0344309 0.0172154 0.0516463 0.0344309 0.0860772c0.826341 0.860772 2.92662 3.04713 2.92662 8.40114c0 5.37122 -2.08307 7.55758 -2.92662 8.41835c-0.0172154 0.0344309 -0.0344309 0.0516463 -0.0344309 0.0860772c0 0.0860772 0.0688618 0.103293 0.120508 0.103293c0.18937 0 1.65268 -1.27394 2.49624 -3.16764c0.860772 -1.91091 1.10179 -3.77018 1.10179 -5.42286z" id="g1-41" />
<ns0:path d="m2.85776 -0.705833c0 -0.430386 -0.344309 -0.705833 -0.705833 -0.705833c-0.344309 0 -0.705833 0.275447 -0.705833 0.705833s0.344309 0.705833 0.705833 0.705833c0.344309 0 0.705833 -0.275447 0.705833 -0.705833z" id="g1-46" />
<ns0:path d="m4.57931 -11.0007c0 -0.361524 -0.0172154 -0.37874 -0.258232 -0.37874c-0.671402 0.809126 -1.68711 1.06736 -2.65118 1.10179c-0.0516463 0 -0.137724 0 -0.154939 0.0344309s-0.0172154 0.0688618 -0.0172154 0.430386c0.533679 0 1.42888 -0.103293 2.1175 -0.516463v9.07254c0 0.60254 -0.0344309 0.809126 -1.51496 0.809126h-0.516463v0.447601c0.826341 -0.0172154 1.68711 -0.0344309 2.51345 -0.0344309s1.68711 0.0172154 2.51345 0.0344309v-0.447601h-0.516463c-1.48053 0 -1.51496 -0.18937 -1.51496 -0.809126v-9.74394z" id="g1-49" />
<ns0:path d="m3.80461 -5.85325c1.53217 0 2.20358 1.32559 2.20358 2.85776c0 2.06585 -1.10179 2.85776 -2.10028 2.85776c-0.912418 0 -2.39295 -0.447601 -2.85776 -1.77319c0.0860772 0.0344309 0.172154 0.0344309 0.258232 0.0344309c0.413171 0 0.723049 -0.275447 0.723049 -0.723049c0 -0.499248 -0.37874 -0.723049 -0.723049 -0.723049c-0.292662 0 -0.740264 0.137724 -0.740264 0.774695c0 1.58382 1.54939 2.82333 3.37423 2.82333c1.91091 0 3.37423 -1.49774 3.37423 -3.25372c0 -1.6699 -1.37724 -2.87498 -3.0127 -3.06435c1.30837 -0.275447 2.5651 -1.4461 2.5651 -3.0127c0 -1.3428 -1.36002 -2.32408 -2.90941 -2.32408c-1.56661 0 -2.94384 0.964065 -2.94384 2.3413c0 0.60254 0.447601 0.705833 0.671402 0.705833c0.361524 0 0.671402 -0.223801 0.671402 -0.671402s-0.309878 -0.671402 -0.671402 -0.671402c-0.0688618 0 -0.154939 0 -0.223801 0.0344309c0.499248 -1.13622 1.85927 -1.3428 2.46181 -1.3428s1.73876 0.292662 1.73876 1.94534c0 0.482032 -0.0688618 1.3428 -0.654187 2.10028c-0.516463 0.671402 -1.10179 0.705833 -1.6699 0.757479c-0.0860772 0 -0.482032 0.0344309 -0.550894 0.0344309c-0.120508 0.0172154 -0.18937 0.0344309 -0.18937 0.154939s0.0172154 0.137724 0.361524 0.137724h0.843557z" id="g1-51" />
</ns0:defs>
<ns0:g id="page1">
<ns0:use x="27.9837" ns1:href="#g1-40" y="74.7198" />
<ns0:use x="34.0802" ns1:href="#g1-51" y="74.7198" />
<ns0:use x="41.9755" ns1:href="#g0-59" y="74.7198" />
<ns0:use x="49.5271" ns1:href="#g1-49" y="74.7198" />
<ns0:use x="57.4224" ns1:href="#g1-41" y="74.7198" />
</ns0:g>
</ns0:svg>

<ns0:svg xmlns:ns0="http://www.w3.org/2000/svg" xmlns:ns1="http://www.w3.org/1999/xlink" height="17.1855pt" version="1.1" viewBox="23.686 61.8237 39.833 17.1855" width="39.833pt" watch_lated_md:baseline="4.289399999999997" xmlns:watch_lated_md="https://github.com/Quansight/pearu-sandbox/latex_in_markdown/">
<ns0:defs>
<ns0:path d="M3.35701 0.0688618C3.35701 -0.929634 3.02992 -1.6699 2.32408 -1.6699C1.77319 -1.6699 1.49774 -1.2223 1.49774 -0.843557S1.75597 0 2.3413 0C2.5651 0 2.75447 -0.0688618 2.90941 -0.223801C2.94384 -0.258232 2.96106 -0.258232 2.97827 -0.258232C3.0127 -0.258232 3.0127 -0.0172154 3.0127 0.0688618C3.0127 0.636971 2.90941 1.75597 1.91091 2.87498C1.72154 3.08156 1.72154 3.11599 1.72154 3.15043C1.72154 3.2365 1.80762 3.32258 1.8937 3.32258C2.03142 3.32258 3.35701 2.04864 3.35701 0.0688618Z" id="g0-59" />
<ns0:path d="M5.26792 4.20057C5.26792 4.18335 5.26792 4.14892 5.21628 4.09727C4.42437 3.28815 2.30687 1.08457 2.30687 -4.28664S4.38994 -11.8442 5.23349 -12.705C5.23349 -12.7222 5.26792 -12.7566 5.26792 -12.8083S5.21628 -12.8944 5.14742 -12.8944C4.95805 -12.8944 3.49473 -11.6204 2.65118 -9.72672C1.79041 -7.81581 1.54939 -5.95654 1.54939 -4.30386C1.54939 -3.06435 1.6699 -0.964065 2.70282 1.25673C3.52917 3.04713 4.94083 4.30386 5.14742 4.30386C5.23349 4.30386 5.26792 4.26943 5.26792 4.20057Z" id="g1-40" />
<ns0:path d="M4.52766 -4.28664C4.52766 -5.52616 4.40715 -7.62644 3.37423 -9.84723C2.54789 -11.6376 1.13622 -12.8944 0.929634 -12.8944C0.877987 -12.8944 0.809126 -12.8771 0.809126 -12.7911C0.809126 -12.7566 0.826341 -12.7394 0.843557 -12.705C1.6699 -11.8442 3.77018 -9.65786 3.77018 -4.30386C3.77018 1.06736 1.68711 3.25372 0.843557 4.11449C0.826341 4.14892 0.809126 4.16614 0.809126 4.20057C0.809126 4.28664 0.877987 4.30386 0.929634 4.30386C1.119 4.30386 2.58232 3.02992 3.42587 1.13622C4.28664 -0.774695 4.52766 -2.63396 4.52766 -4.28664Z" id="g1-41" />
<ns0:path d="M2.85776 -0.705833C2.85776 -1.13622 2.51345 -1.41167 2.15193 -1.41167C1.80762 -1.41167 1.4461 -1.13622 1.4461 -0.705833S1.79041 0 2.15193 0C2.49624 0 2.85776 -0.275447 2.85776 -0.705833Z" id="g1-46" />
<ns0:path d="M4.57931 -11.0007C4.57931 -11.3622 4.56209 -11.3794 4.32108 -11.3794C3.64967 -10.5703 2.63396 -10.312 1.6699 -10.2776C1.61825 -10.2776 1.53217 -10.2776 1.51496 -10.2432S1.49774 -10.1743 1.49774 -9.8128C2.03142 -9.8128 2.92662 -9.91609 3.61524 -10.3293V-1.25673C3.61524 -0.654187 3.58081 -0.447601 2.10028 -0.447601H1.58382V0C2.41016 -0.0172154 3.27093 -0.0344309 4.09727 -0.0344309S5.78439 -0.0172154 6.61073 0V-0.447601H6.09427C4.61374 -0.447601 4.57931 -0.636971 4.57931 -1.25673V-11.0007Z" id="g1-49" />
<ns0:path d="M3.80461 -5.85325C5.33679 -5.85325 6.00819 -4.52766 6.00819 -2.99549C6.00819 -0.929634 4.9064 -0.137724 3.90791 -0.137724C2.99549 -0.137724 1.51496 -0.585325 1.05014 -1.91091C1.13622 -1.87648 1.2223 -1.87648 1.30837 -1.87648C1.72154 -1.87648 2.03142 -2.15193 2.03142 -2.59953C2.03142 -3.09878 1.65268 -3.32258 1.30837 -3.32258C1.01571 -3.32258 0.56811 -3.18486 0.56811 -2.54789C0.56811 -0.964065 2.1175 0.275447 3.94234 0.275447C5.85325 0.275447 7.31656 -1.2223 7.31656 -2.97827C7.31656 -4.64817 5.93933 -5.85325 4.30386 -6.04262C5.61223 -6.31807 6.86896 -7.48872 6.86896 -9.05532C6.86896 -10.3981 5.50894 -11.3794 3.95955 -11.3794C2.39295 -11.3794 1.01571 -10.4153 1.01571 -9.03811C1.01571 -8.43557 1.46331 -8.33227 1.68711 -8.33227C2.04864 -8.33227 2.35852 -8.55607 2.35852 -9.00368S2.04864 -9.67508 1.68711 -9.67508C1.61825 -9.67508 1.53217 -9.67508 1.46331 -9.64065C1.96256 -10.7769 3.32258 -10.9835 3.92512 -10.9835S5.66388 -10.6908 5.66388 -9.03811C5.66388 -8.55607 5.59502 -7.6953 5.00969 -6.93782C4.49323 -6.26642 3.90791 -6.23199 3.3398 -6.18034C3.25372 -6.18034 2.85776 -6.14591 2.7889 -6.14591C2.66839 -6.1287 2.59953 -6.11148 2.59953 -5.99097S2.61675 -5.85325 2.96106 -5.85325H3.80461Z" id="g1-51" />
</ns0:defs>
<ns0:g id="page1">
<ns0:use x="27.9837" ns1:href="#g1-40" y="74.7198" />
<ns0:use x="34.0802" ns1:href="#g1-51" y="74.7198" />
<ns0:use x="41.9755" ns1:href="#g0-59" y="74.7198" />
<ns0:use x="49.5271" ns1:href="#g1-49" y="74.7198" />
<ns0:use x="57.4224" ns1:href="#g1-41" y="74.7198" />
</ns0:g>
</ns0:svg>
